Numix-Light/scalable/status/network-wired-symbolic.svg

<?xml version="1.0" encoding="UTF-8" standalone="no"?>
<svg
   xmlns:dc="http://purl.org/dc/elements/1.1/"
   xmlns:cc="http://creativecommons.org/ns#"
   xmlns:rdf="http://www.w3.org/1999/02/22-rdf-syntax-ns#"
   xmlns:svg="http://www.w3.org/2000/svg"
   xmlns="http://www.w3.org/2000/svg"
   xmlns:sodipodi="http://sodipodi.sourceforge.net/DTD/sodipodi-0.dtd"
   xmlns:inkscape="http://www.inkscape.org/namespaces/inkscape"
   width="16"
   viewBox="0 0 16 16"
   height="16"
   id="svg2"
   version="1.1"
   inkscape:version="0.91 r"
   sodipodi:docname="network-wired-symbolic.svg">
  <metadata
     id="metadata10">
    <rdf:RDF>
      <cc:Work
         rdf:about="">
        <dc:format>image/svg+xml</dc:format>
        <dc:type
           rdf:resource="http://purl.org/dc/dcmitype/StillImage" />
        <dc:title />
      </cc:Work>
    </rdf:RDF>
  </metadata>
  <defs
     id="defs8" />
  <sodipodi:namedview
     pagecolor="#ffffff"
     bordercolor="#666666"
     borderopacity="1"
     objecttolerance="10"
     gridtolerance="10"
     guidetolerance="10"
     inkscape:pageopacity="0"
     inkscape:pageshadow="2"
     inkscape:window-width="1215"
     inkscape:window-height="776"
     id="namedview6"
     showgrid="true"
     inkscape:zoom="36.875"
     inkscape:cx="8"
     inkscape:cy="8"
     inkscape:window-x="65"
     inkscape:window-y="24"
     inkscape:window-maximized="1"
     inkscape:current-layer="svg2">
    <inkscape:grid
       type="xygrid"
       id="grid4138" />
  </sodipodi:namedview>
  <path
     style="color:#353535;fill:#353535;fill-opacity:1"
     d="M 1.9999999,15 C 0.79529725,15 0,14.202426 0,13 L 0,3 C 0,1.7966102 0.79661015,1 1.9999999,1 L 14,1 c 1.20339,0 2,0.7966102 2,2 l 0,10 c 0,1.198056 -0.799552,2 -2,2 z m 2,-4 L 5,11 l -1e-7,2 L 11,13 l 0,-2 1,0 0,-2 2,0 0,-4 C 14,3.2 14,3 13,3 L 2.9999999,3 c -1,0 -1,0.2033898 -1,2 l 0,4 2,0 z"
     id="path6104"
     inkscape:connector-curvature="0"
     sodipodi:nodetypes="scccccccsccccccccccccccc" />
</svg>

<svg xmlns="http://www.w3.org/2000/svg" viewBox="0 0 16 16">
 <path d="m 2 15 c -1.205 0 -2 -0.798 -2 -2 l 0 -10 c 0 -1.203 0.797 -2 2 -2 l 12 0 c 1.203 0 2 0.797 2 2 l 0 10 c 0 1.198 -0.8 2 -2 2 z m 2 -4 l 1 0 l 0 2 l 6 0 l 0 -2 1 0 0 -2 2 0 0 -4 c 0 -1.8 0 -2 -1 -2 l -10 0 c -1 0 -1 0.203 -1 2 l 0 4 2 0 z" style="fill:#353535;fill-opacity:1;color:#353535"/>
</svg>
